images/icon-how-it-work-1.svg

<svg width="40" height="40" viewBox="0 0 40 40" fill="none" xmlns="http://www.w3.org/2000/svg">
<g clip-path="url(#clip0_107_790)">
<path d="M12.5 20H9.16667C7.78833 20 6.66667 21.1217 6.66667 22.5V25.8333C6.66667 27.2117 7.78833 28.3333 9.16667 28.3333H12.5C13.8783 28.3333 15 27.2117 15 25.8333V22.5C15 21.1217 13.8783 20 12.5 20ZM13.3333 25.8333C13.3333 26.2933 12.9583 26.6667 12.5 26.6667H9.16667C8.70833 26.6667 8.33333 26.2933 8.33333 25.8333V22.5C8.33333 22.04 8.70833 21.6667 9.16667 21.6667H12.5C12.9583 21.6667 13.3333 22.04 13.3333 22.5V25.8333ZM32.5 3.33333H30V0.833333C30 0.373333 29.6267 0 29.1667 0C28.7067 0 28.3333 0.373333 28.3333 0.833333V3.33333H11.6667V0.833333C11.6667 0.373333 11.2933 0 10.8333 0C10.3733 0 10 0.373333 10 0.833333V3.33333H7.5C3.365 3.33333 0 6.69833 0 10.8333V32.5C0 36.635 3.365 40 7.5 40H32.5C36.635 40 40 36.635 40 32.5V10.8333C40 6.69833 36.635 3.33333 32.5 3.33333ZM7.5 5H32.5C35.7167 5 38.3333 7.61667 38.3333 10.8333V13.3333H1.66667V10.8333C1.66667 7.61667 4.28333 5 7.5 5ZM32.5 38.3333H7.5C4.28333 38.3333 1.66667 35.7167 1.66667 32.5V15H38.3333V32.5C38.3333 35.7167 35.7167 38.3333 32.5 38.3333Z" fill="#1E84B5"/>
<path d="M12.4998 20H9.1665C7.78817 20 6.6665 21.1217 6.6665 22.5V25.8333C6.6665 27.2117 7.78817 28.3333 9.1665 28.3333H12.4998C13.8782 28.3333 14.9998 27.2117 14.9998 25.8333V22.5C14.9998 21.1217 13.8782 20 12.4998 20ZM13.3332 25.8333C13.3332 26.2933 12.9582 26.6667 12.4998 26.6667H9.1665C8.70817 26.6667 8.33317 26.2933 8.33317 25.8333V22.5C8.33317 22.04 8.70817 21.6667 9.1665 21.6667H12.4998C12.9582 21.6667 13.3332 22.04 13.3332 22.5V25.8333Z" fill="#0E384C"/>
</g>
<defs>
<clipPath id="clip0_107_790">
<rect width="40" height="40" fill="white"/>
</clipPath>
</defs>
</svg>

<svg xmlns="http://www.w3.org/2000/svg" width="40" height="40" fill="none" viewBox="0 0 40 40"><g clip-path="url(#a)"><path fill="#1e84b5" d="M12.5 20H9.167a2.503 2.503 0 0 0-2.5 2.5v3.333c0 1.379 1.121 2.5 2.5 2.5H12.5c1.378 0 2.5-1.121 2.5-2.5V22.5c0-1.378-1.122-2.5-2.5-2.5m.833 5.833c0 .46-.375.834-.833.834H9.167a.835.835 0 0 1-.834-.834V22.5c0-.46.375-.833.834-.833H12.5c.458 0 .833.373.833.833zM32.5 3.333H30v-2.5a.834.834 0 0 0-1.667 0v2.5H11.667v-2.5a.834.834 0 0 0-1.667 0v2.5H7.5c-4.135 0-7.5 3.365-7.5 7.5V32.5C0 36.635 3.365 40 7.5 40h25c4.135 0 7.5-3.365 7.5-7.5V10.833c0-4.135-3.365-7.5-7.5-7.5M7.5 5h25a5.84 5.84 0 0 1 5.833 5.833v2.5H1.667v-2.5A5.84 5.84 0 0 1 7.5 5m25 33.333h-25A5.84 5.84 0 0 1 1.667 32.5V15h36.666v17.5a5.84 5.84 0 0 1-5.833 5.833"/><path fill="#0e384c" d="M12.5 20H9.166a2.503 2.503 0 0 0-2.5 2.5v3.333c0 1.379 1.122 2.5 2.5 2.5H12.5c1.378 0 2.5-1.121 2.5-2.5V22.5c0-1.378-1.122-2.5-2.5-2.5m.833 5.833c0 .46-.375.834-.833.834H9.166a.835.835 0 0 1-.833-.834V22.5c0-.46.375-.833.833-.833H12.5c.458 0 .833.373.833.833z"/></g><defs><clipPath id="a"><path fill="#fff" d="M0 0h40v40H0z"/></clipPath></defs></svg>
